public/assets/images/icons/dating.svg

<svg width="120" height="120" viewBox="0 0 120 120" fill="none" xmlns="http://www.w3.org/2000/svg">
<path d="M60.2979 37.872C68.7186 29.4513 82.3712 29.4513 90.7919 37.872C99.2126 46.2927 99.2126 59.9453 90.7919 68.366L71.0371 88.1208C67.9129 91.245 62.8476 91.245 59.7234 88.1208L36.3005 64.6979C35.5194 63.9168 35.5194 62.6505 36.3005 61.8694L60.2979 37.872Z" fill="#E6C3E6"/>
<foreignObject x="1.93164" y="10.3118" width="108.475" height="102.676"><div xmlns="http://www.w3.org/1999/xhtml" style="backdrop-filter:blur(10px);clip-path:url(#bgblur_0_911_3226_clip_path);height:100%;width:100%"></div></foreignObject><g data-figma-bg-blur-radius="20">
<path d="M29.247 68.1213C20.8263 59.7006 20.8263 46.048 29.247 37.6273C37.6677 29.2066 51.3203 29.2066 59.741 37.6273L88.8207 66.707C89.6018 67.4881 89.6018 68.7544 88.8207 69.5355L71.0547 87.3015C64.8063 93.5499 54.6756 93.5499 48.4273 87.3015L29.247 68.1213Z" fill="url(#paint0_linear_911_3226)" fill-opacity="0.2"/>
<path d="M28.8934 37.2737C37.5094 28.6578 51.4786 28.6578 60.0945 37.2737L89.1743 66.3535C90.1506 67.3298 90.1506 68.9127 89.1743 69.889L71.4082 87.6551C64.9646 94.0987 54.5174 94.0987 48.0737 87.6551L28.8934 68.4748C20.2775 59.8589 20.2775 45.8897 28.8934 37.2737Z" stroke="url(#paint1_linear_911_3226)" stroke-opacity="0.5"/>
</g>
<defs>
<clipPath id="bgblur_0_911_3226_clip_path" transform="translate(-1.93164 -10.3118)"><path d="M29.247 68.1213C20.8263 59.7006 20.8263 46.048 29.247 37.6273C37.6677 29.2066 51.3203 29.2066 59.741 37.6273L88.8207 66.707C89.6018 67.4881 89.6018 68.7544 88.8207 69.5355L71.0547 87.3015C64.8063 93.5499 54.6756 93.5499 48.4273 87.3015L29.247 68.1213Z"/>
</clipPath><linearGradient id="paint0_linear_911_3226" x1="29.247" y1="37.6273" x2="74.988" y2="83.3682" gradientUnits="userSpaceOnUse">
<stop offset="0.06" stop-color="#DE5AFF" stop-opacity="0.9"/>
<stop offset="0.49" stop-color="#FF56FC" stop-opacity="0.96"/>
<stop offset="1" stop-color="#E44EFF" stop-opacity="0.9"/>
</linearGradient>
<linearGradient id="paint1_linear_911_3226" x1="14" y1="52.8743" x2="120.075" y2="39.2654" gradientUnits="userSpaceOnUse">
<stop offset="0.0366666" stop-color="#FAE7FF" stop-opacity="0.52"/>
<stop offset="0.491667" stop-color="#E788FF"/>
<stop offset="1" stop-color="#F6B4FF" stop-opacity="0.1"/>
</linearGradient>
</defs>
</svg>

<svg xmlns="http://www.w3.org/2000/svg" width="120" height="120" fill="none"><path fill="#E6C3E6" d="M60.298 37.872c8.42-8.42 22.073-8.42 30.494 0s8.42 22.073 0 30.494L71.037 88.121a8 8 0 0 1-11.314 0L36.301 64.698a2 2 0 0 1 0-2.829z"/><foreignObject width="108.475" height="102.676" x="1.932" y="10.312"><div xmlns="http://www.w3.org/1999/xhtml" style="backdrop-filter:blur(10px);clip-path:url(#a);height:100%;width:100%"/></foreignObject><g data-figma-bg-blur-radius="20"><path fill="url(#b)" fill-opacity=".2" d="M29.247 68.121c-8.42-8.42-8.42-22.073 0-30.494s22.073-8.42 30.494 0l29.08 29.08a2 2 0 0 1 0 2.829L71.055 87.302c-6.249 6.248-16.38 6.248-22.628 0z"/><path stroke="url(#c)" stroke-opacity=".5" d="M28.893 37.274c8.616-8.616 22.586-8.616 31.201 0l29.08 29.08a2.5 2.5 0 0 1 0 3.535L71.408 87.655c-6.443 6.444-16.89 6.444-23.334 0l-19.18-19.18c-8.616-8.616-8.616-22.585 0-31.201Z"/></g><defs><linearGradient id="b" x1="29.247" x2="74.988" y1="37.627" y2="83.368" gradientUnits="userSpaceOnUse"><stop offset=".06" stop-color="#DE5AFF" stop-opacity=".9"/><stop offset=".49" stop-color="#FF56FC" stop-opacity=".96"/><stop offset="1" stop-color="#E44EFF" stop-opacity=".9"/></linearGradient><linearGradient id="c" x1="14" x2="120.075" y1="52.874" y2="39.265" gradientUnits="userSpaceOnUse"><stop offset=".037" stop-color="#FAE7FF" stop-opacity=".52"/><stop offset=".492" stop-color="#E788FF"/><stop offset="1" stop-color="#F6B4FF" stop-opacity=".1"/></linearGradient><clipPath id="a" transform="translate(-1.932 -10.312)"><path d="M29.247 68.121c-8.42-8.42-8.42-22.073 0-30.494s22.073-8.42 30.494 0l29.08 29.08a2 2 0 0 1 0 2.829L71.055 87.302c-6.249 6.248-16.38 6.248-22.628 0z"/></clipPath></defs></svg>
